X: 6
T: Rumblestrip   (D)
C: Sam Bartlett (2002)
%D:2002
S: Handout at Roaring Jelly practice 2020-1-28
R: reel
Z: 2020 John Chambers <jc:trillian.mit.edu>
M: C|
L: 1/8
K: Dmix
"^A"\
|:"D"fddc Addd | fdfg- gg- gg | "D"fddc A2Ac | "G"G2GA "D"FDDD |
| "D"FGAB c2cB | ABcd "G"BGG2 | "Am"e2dc A2Ac | "G"G2GA "D"FDD2 :|
"^B1"\
[|"Am"A2GF "D"DDDF | DDDF DDFG | "Am"A2GF "D"DDDF | "C"CCCD- "D"DD- DD |
| "Am"A2GF "D"DDDF | DDDF DDFG | "Am"A2GF "D"DDDF | "C"CCCD- "D"DA, C_D |]
"^B2"\
[|"Am"DAGF "D"DDDF | DDDF DDFG | "Am"A2GF "D"DDDF | "C"CCCD- "D"DD- DD |
| "Am"A2GF "D"Accc | Accc AccG | "Am"A2GF "D"Accc | "C"cAcd- "D"dd- dd |]
